nextcloudappstore/core/static/assets/img/icons/list/sort-alphabetical-variant.svg

<svg width="20" height="20" fill="none" style="-webkit-print-color-adjust:exact" version="1.1" viewBox="0 0 20 20" xmlns="http://www.w3.org/2000/svg"><g rx="0" ry="0" fill="#000"><g class="fills"><path rx="0" ry="0" d="m7.708 4.167 2.709-2.709 2.708 2.709h-5.417zm5.417 11.666-2.708 2.709-2.709-2.709h5.417zm-5.717-3.916h-2.408l-0.6 2.25h-1.975l2.575-8.334h2.5l2.608 8.334h-2.05l-0.65-2.25zm-2.133-1.35h1.858l-0.525-1.767-0.216-0.808-0.209-0.8h-0.025l-0.183 0.808-0.2 0.817-0.5 1.75zm5.6 3.6v-1.05l3.958-5.642v-0.05h-3.583v-1.592h6.025v1.117l-3.867 5.55v0.067h3.925v1.6h-6.458z" fill="#007bbd"/></g></g></svg>

<svg xmlns:xlink="http://www.w3.org/1999/xlink" width="20" xmlns="http://www.w3.org/2000/svg" height="20" id="screenshot-db15cf86-6f9e-8025-8002-bbab9ed66088" viewBox="0 0 20 20" style="-webkit-print-color-adjust: exact;" fill="none" version="1.1"><g id="shape-db15cf86-6f9e-8025-8002-bbab9ed66088" rx="0" ry="0" style="fill: rgb(0, 0, 0);"><g id="shape-db15cf86-6f9e-8025-8002-bbab9ed6608a"><g class="fills" id="fills-db15cf86-6f9e-8025-8002-bbab9ed6608a"><path rx="0" ry="0" d="M7.708,4.167L10.417,1.458L13.125,4.167L7.708,4.167ZM13.125,15.833L10.417,18.542L7.708,15.833L13.125,15.833ZM7.408,11.917L5.000,11.917L4.400,14.167L2.425,14.167L5.000,5.833L7.500,5.833L10.108,14.167L8.058,14.167L7.408,11.917ZM5.275,10.567L7.133,10.567L6.608,8.800L6.392,7.992L6.183,7.192L6.158,7.192L5.975,8.000L5.775,8.817L5.275,10.567ZM10.875,14.167L10.875,13.117L14.833,7.475L14.833,7.425L11.250,7.425L11.250,5.833L17.275,5.833L17.275,6.950L13.408,12.500L13.408,12.567L17.333,12.567L17.333,14.167L10.875,14.167ZZ" style="fill: rgb(0, 123, 189); fill-opacity: 1;"/></g></g></g></svg>
